src/assets/images/icon-next.svg

<svg fill="none" height="29" viewBox="0 0 30 29" width="30" xmlns="http://www.w3.org/2000/svg"><path d="m.0153503 3.65077 10.7567497 10.59453-10.7567497 10.5945 3.3043597 3.2546 14.06109-13.8491-14.06109-13.84906zm24.3959497-3.25453h4.6871v27.69816h-4.6871z" fill="#fff"/></svg>

<svg width="30" height="29" viewBox="0 0 30 29" fill="none" xmlns="http://www.w3.org/2000/svg">
<path d="M0.0153503 3.65077L10.7721 14.2453L0.0153503 24.8398L3.31971 28.0944L17.3808 14.2453L3.31971 0.39624L0.0153503 3.65077ZM24.4113 0.39624H29.0984V28.0944H24.4113V0.39624Z" fill="white"/>
</svg>
